X:1
T:When Jesus Comes to Reign
T:George Crawford Hugg
T:When Jesus Comes to Reign
T:Public Domain
T:Public Domain
C:George Crawford Hugg
Z:Public Domain
%%score ( 1 2 ) ( 3 4 )
L:1/8
M:4/4
K:Ab
V:1 treble 
V:2 treble 
V:3 bass 
V:4 bass 
V:1
 E2 | [EA]2 [EA]2 [Ec]2 [FA]2 | [FB]2 [EB]2 [Ed]2 [EB]2 | [Ee]3 [Ec] [EA]2 [FA]2 | [GB]6 E2 | %5
w: 1.~Like|the right- eous ones|shall shine, When Je-|sus comes to reign;|His arms|
w: 2.~Our|and cares will then|be o’er, When Je-|sus comes to reign;|With Him|
w: 3.~Sweet|will then our por-|tion be, When Je-|sus comes to reign;|His joy|
 [EA]2 [EA]2 [Ec]2 [FA]2 | [FB]2 [EB]2 [Ed]2 [EB]2 | [Ee]3 [Ec] [FB]2 (ED) | [CA]6 || %9
w: love will them en-|twine, When Je- sus|comes to reign. * *||
w: dwell for- ev- er-|more, When Je- sus|comes to reign. When *|sus|
w: share, thro’ e- terni-|ty, When Je- sus|comes to reign. * *||
"^Refrain" A2 | c2 A2 [Ae]3 [Af] | [Ae]6 A2 | c2 A2 [Ge]3 [Ge] | [GB]6 [GB]2 | %14
w: |||||
w: comes|reign, When Je- sus|reign, His|eous ones shall shine|stars, When|
w: |||||
 [Bd]2 [GB]2 [Ac]2 [Gd]2 | [ce]2 [ce][Bd] [Ac]2 [FB]2 | [EA]2 [EA]2 [Ec]3 [DB] | [CA]6 |] %18
w: ||||
w: Je- sus comes to|reign. * * * *|||
w: ||||
V:2
 E2 | x8 | x8 | x8 | x6 E2 | x8 | x8 | x6 B2 | x6 || A2 | c2 A2 x4 | x6 A2 | c2 A2 x4 | x8 | x8 | %15
w: stars||||of|||||||||||
w: toils||||we’ll|||Je-||to|comes to|right-|as the|||
w: rest||||we’ll|||||||||||
 x8 | x8 | x6 |] %18
w: |||
w: |||
w: |||
V:3
 E,2 | [C,A,]2 [G,,C]2 A,2 [F,C]2 | [=D,B,]2 ([E,G,][F,A,]) [G,B,]2 (E,_D,) | %3
 [C,A,]3 [E,A,] [A,C]2 [F,C]2 | [E,E]6 E,2 | [C,A,]2 [A,,C]2 A,2 [F,C]2 | %6
 [=D,B,]2 ([E,G,][F,A,]) [G,B,]2 (E,_D,) | [C,A,]3 [F,A,] [D,A,]2 [E,G,]2 | [A,,E,]6 || A,2 | %10
 C2 A,2 [A,C]3 [A,D] | [A,C]6 A,2 | C2 A,2 [E,B,]3 [E,B,] | [E,E]6 [E,E]2 | %14
 [E,E]2 [D,E]2 [C,E]2 [B,,E]2 | [A,,E]2 [A,,E][B,,E] [C,E]2 [D,D]2 | %16
 [E,C]2 [C,A,]2 [E,G,]3 [E,G,] | [A,,A,]6 |] %18
V:4
 E,2 | x4 A,2 x2 | x6 G,2 | x8 | x6 E,2 | x4 A,2 x2 | x6 G,2 | x8 | x6 || A,2 | C2 A,2 x4 | %11
 x6 A,2 | C2 A,2 x4 | x8 | x8 | x8 | x8 | x6 |] %18

